img/dop2.svg

<svg width="13" height="12" viewBox="0 0 13 12" fill="none" xmlns="http://www.w3.org/2000/svg">
<path d="M11.9999 3.5H1.00007C0.864567 3.5 0.747369 3.54945 0.64845 3.64842C0.549476 3.74734 0.500031 3.86454 0.500031 3.99996V11.4999C0.500031 11.6353 0.549476 11.7525 0.64845 11.8514C0.747369 11.9504 0.864567 11.9999 1.00007 11.9999H11.9999C12.1353 11.9999 12.2524 11.9504 12.3514 11.8514C12.4503 11.7526 12.4998 11.6353 12.4998 11.4999V3.99996C12.4998 3.86446 12.4505 3.74737 12.3514 3.64842C12.2525 3.54945 12.1353 3.5 11.9999 3.5ZM7.85135 5.85152C7.75248 5.95046 7.63523 5.99994 7.49981 5.99994H5.49984C5.3645 5.99994 5.2473 5.95044 5.1483 5.85152C5.04938 5.75254 4.99988 5.6354 4.99988 5.49989C4.99988 5.3645 5.04938 5.2473 5.1483 5.14835C5.24727 5.04938 5.36447 4.99988 5.49984 4.99988H7.5C7.63531 4.99988 7.75248 5.04938 7.85154 5.14835C7.95043 5.24727 7.99988 5.36447 7.99988 5.49989C7.99988 5.63537 7.95032 5.75254 7.85135 5.85152Z" fill="url(#paint0_linear)"/>
<path d="M12.8515 0.14842C12.7525 0.049446 12.6354 0 12.4999 0H0.499986C0.364592 0 0.247394 0.049446 0.148447 0.14842C0.0495006 0.247339 0 0.364538 0 0.49996V2.49994C0 2.63533 0.0495006 2.75248 0.148474 2.85148C0.247421 2.95045 0.364592 2.9999 0.500014 2.9999H12.4998C12.6352 2.9999 12.7524 2.95045 12.8515 2.85148C12.9504 2.7525 12.9998 2.63536 12.9998 2.49994V0.49996C12.9998 0.364455 12.9504 0.247339 12.8515 0.14842Z" fill="url(#paint1_linear)"/>
<defs>
<linearGradient id="paint0_linear" x1="0.476218" y1="3.46321" x2="6.49588" y2="13.5902" gradientUnits="userSpaceOnUse">
<stop stop-color="#FECA52"/>
<stop offset="0.515625" stop-color="#FFCE5F"/>
<stop offset="1" stop-color="#FF644E"/>
</linearGradient>
<linearGradient id="paint1_linear" x1="-0.0257965" y1="-0.0129857" x2="0.877026" y2="4.64918" gradientUnits="userSpaceOnUse">
<stop stop-color="#FECA52"/>
<stop offset="0.515625" stop-color="#FFCE5F"/>
<stop offset="1" stop-color="#FF644E"/>
</linearGradient>
</defs>
</svg>

<svg width="13" height="12" viewBox="0 0 13 12" fill="none" xmlns="http://www.w3.org/2000/svg"><path d="M12 3.5H1a.48.48 0 0 0-.352.148A.48.48 0 0 0 .5 4v7.5c0 .135.05.252.148.351A.48.48 0 0 0 1 12h11a.48.48 0 0 0 .351-.149.48.48 0 0 0 .149-.351V4a.48.48 0 0 0-.149-.352A.48.48 0 0 0 12 3.5zM7.85 5.852A.48.48 0 0 1 7.5 6h-2a.48.48 0 0 1-.352-.148A.48.48 0 0 1 5 5.5a.48.48 0 0 1 .148-.352A.48.48 0 0 1 5.5 5h2a.48.48 0 0 1 .352.148A.48.48 0 0 1 8 5.5a.48.48 0 0 1-.149.352z" fill="url(#a)"/><path d="M12.851.148A.48.48 0 0 0 12.5 0H.5a.48.48 0 0 0-.352.148A.48.48 0 0 0 0 .5v2c0 .135.05.252.148.351A.48.48 0 0 0 .5 3h12c.135 0 .252-.05.351-.149A.48.48 0 0 0 13 2.5v-2a.48.48 0 0 0-.149-.352z" fill="url(#b)"/><defs><linearGradient id="a" x1=".476" y1="3.463" x2="6.496" y2="13.59" gradientUnits="userSpaceOnUse"><stop stop-color="#FECA52"/><stop offset=".516" stop-color="#FFCE5F"/><stop offset="1" stop-color="#FF644E"/></linearGradient><linearGradient id="b" x1="-.026" y1="-.013" x2=".877" y2="4.649" gradientUnits="userSpaceOnUse"><stop stop-color="#FECA52"/><stop offset=".516" stop-color="#FFCE5F"/><stop offset="1" stop-color="#FF644E"/></linearGradient></defs></svg>
